X: 771
T: The Old Woman Tossed Up in a Blanket.
T: Sweeping the Cobwebs Out of the Sky.
C:F. O'Neill.
B:O'Neill's Music of Ireland
N:O'Neill's - 771
Z:Transcribed by Stephen Foy (shf@access.digex.net)
Z:abc 1.6
Z:Ornamenet (~) is a mordant
M:6/8
R:Jig
K:A
E|AcB Bce|fec {c}B2 A|AcB c2 B|cAF ~F2 E|\
AcB Bce|fec {c}B2 A|AcB c2 B|cAA A2:|
||e|{g}fea {g}fea|{g}fea fec|ecf ecf|ecA B2 e|\
(af).f (ge).e|(fe).c B2 A|AcB c2 B|cAA A2:|


